X:1
T:Port na Sióg
T:Port na Shigh
T:Fairies' Jig, The
M:9/8
L:1/8
S:Dermot McLaughlin (Catskills Irish Arts Week, 2004)
Z:AK/Fiddler’s Companion
K:Dmix
{A/B/}A2G Add Add | ABA AFA fef | {A/B/}A2G Add Add |
cAG {A/B/}A2G EDD :: ~a3 fab afd | afd dfa baf |1 ~a3 fab afd |
cAG A/B/AG FDD :|2 a^ga baf =ged | cAG A/B/AG EDD ||

